X:20
C:Page 10
T:God Save the King. MBe.20
S:Matthew Betham MS, Towcett Cumbria, 1815
O:England;Cumbria;Towcett
Z:VMP – Hugh Taylor, 2012
M:3/4
L:1/8
Q:1/2=60
R:.Air
N:Repeats were written after 6 bars and at the end. I have ignored them
N:NB-These notes weren’t written dotted. I have made them dotted.
K:D
[V:1 name=”Primo”]d2 d2 ed|c3 d e2|f2 f2 g2|f3 e d2|
[V:2 name=”Secundo”]d2 D2 F2|A3 B c2|d2 D2 B2|A3 G F2|
[V:1 name=”Primo”]e2 d2 c2|{d}”^NB”d6|a2 a2 a2|a3 g f2|
[V:2 name=”Secundo”](3(GAB)A2 A2|f6|f2 f2 f2|f3 e d2|
[V:1 name=”Primo”]g2 g2 g2|g3 f e2|f2 gfed|f3 g a2|
[V:2 name=”Secundo”]e2 e2 e2|e3 d A2|d2 edcB|A3 G2 F|
[V:1 name=”Primo”](3(bag)~f2 ~e2|d6|]
[V:2 name=”Secundo”]G2 F2 E2|”^NB”F6|]

